X: 51
T: No_144_I_Am_Going_to_Another_Part_of_Elder_Brother's_Land.krn
N: Derived from No_144_I_Am_Going_to_Another_Part_of_Elder_Brother's_Land.krn
%%abc-version 2.0
%%abcx-abcm2ps-target-version 5.9.1 (29 Sep 2008)
%%abc-creator hum2abc beta
%%abcx-conversion-date 2019/03/15 08:37:56
%%humdrum-veritas 2404564503
%%humdrum-veritas-data 3041337896
%%linebreak <none>
%%barnumbers 0
L: 1/8
M: 2/4
K: B clef=bass
[K:clef=bass][M:2/4]G,2G,2 [I:setbarnb 2]| 
F,E, D,D, ||  
[M:3/4]D,6 ||  
[M:2/4]C,2C,3/C,/ | 
D,3/D,/C,2 ||  
[M:3/4]C,6 ||  
[M:2/4]C,2D,3/D,/ | 
D,3/D,/D,2 ||  
[M:3/4]D,4C,2 ||  
[M:2/4]D,2C,3/C,/ | 
D,2C,3/C,/ | 
D,2D,2 ||  
[M:3/4]D,4D,2 | 
F,/F,3/ F,F, E,E, :|]  



